X: 39200
T: Swiss Cottage
R: reel
M: 4/4
K: Amajor
|:c|GA.G.A .F.A.E.A|FA.E.A GB.B.c|GA.G.A .F.A.E.A|dfBd cAA:|
g|aAfA eAcA|aAcA GBBg|aAfA eAcA|GA/B/ Bc/e/ cAAg|
aAfA eAcA|aAcA GBBc|GA.G.A .F.A.E.A|dfBd cAA||

